svg/furkot/public-domain/lake.svg

<svg viewBox="0 0 512 512" xmlns="http://www.w3.org/2000/svg"><path d="m257.001 71.253c-141.018-.114-255.73 82.632-255.73 184.526-.114 101.817 114.56 184.855 255.44 184.968 140.955.152 255.667-82.625 255.667-184.456.115-101.957-114.491-184.924-255.377-185.038zm-94.235 100.71c4.128-3.844 10.51-3.621 14.362.539 10.294 11.136 24.301 17.314 39.553 17.314 13.161 0 25.295-4.516 35.078-13.254l6.735-5.932 6.665 5.932c9.916 8.738 22.222 13.299 35.603 13.299 13.962.044 26.876-4.907 36.341-13.913 3.985-3.871 10.41-3.762 14.255.266 3.939 4.084 3.782 10.535-.286 14.361-13.19 12.654-31.08 19.629-50.31 19.629-15.272 0-29.969-4.642-42.268-13.116-12.204 8.582-26.541 13.032-41.813 13.032-20.987 0-40.332-8.472-54.516-23.832-3.737-4.168-3.491-10.611.601-14.325zm232.162 123.099c-13.33 13.335-31.587 20.634-51.418 20.596-15.878 0-30.91-4.857-43.368-13.849-12.236 9.004-27.299 13.81-43.35 13.81-15.315-.043-29.986-4.66-42.241-13.134-12.206 8.576-26.592 13.034-41.864 13.034-20.962 0-40.256-8.524-54.486-23.841-3.78-4.104-3.514-10.535.62-14.38 4.138-3.788 10.498-3.49 14.388.652 10.269 11.091 24.345 17.269 39.549 17.269 13.115 0 25.3-4.59 35.039-13.259l6.754-6.002 6.753 6.002c9.783 8.669 22.007 13.304 35.527 13.336 14.007 0 26.882-4.952 36.235-13.956l6.918-6.718 7.039 6.635c9.858 9.208 22.486 14.096 36.493 14.096 14.159 0 27.774-5.249 37.101-14.672 4.048-3.977 10.44-3.907 14.405 0 3.953 3.997 3.89 10.428-.094 14.381z"/></svg>

<svg viewBox="0 0 512 512" xmlns="http://www.w3.org/2000/svg"><path d="M 257.001 71.253 C 115.983 71.139 1.271 153.885 1.271 255.779 C 1.157 357.596 115.831 440.634 256.711 440.747 C 397.666 440.899 512.378 358.122 512.378 256.291 C 512.493 154.334 397.887 71.367 257.001 71.253 Z M 162.766 171.963 C 166.894 168.119 173.276 168.342 177.128 172.502 C 187.422 183.638 201.429 189.816 216.681 189.816 C 229.842 189.816 241.976 185.3 251.759 176.562 L 258.494 170.63 L 265.159 176.562 C 275.075 185.3 287.381 189.861 300.762 189.861 C 314.724 189.905 327.638 184.954 337.103 175.948 C 341.088 172.077 347.513 172.186 351.358 176.214 C 355.297 180.298 355.14 186.749 351.072 190.575 C 337.882 203.229 319.992 210.204 300.762 210.204 C 285.49 210.204 270.793 205.562 258.494 197.088 C 246.29 205.67 231.953 210.12 216.681 210.12 C 195.694 210.12 176.349 201.648 162.165 186.288 C 158.428 182.12 158.674 175.677 162.766 171.963 Z M 394.928 295.062 C 381.598 308.397 363.341 315.696 343.51 315.658 C 327.632 315.658 312.6 310.801 300.142 301.809 C 287.906 310.813 272.843 315.619 256.792 315.619 C 241.477 315.576 226.806 310.959 214.551 302.485 C 202.345 311.061 187.959 315.519 172.687 315.519 C 151.725 315.519 132.431 306.995 118.201 291.678 C 114.421 287.574 114.687 281.143 118.821 277.298 C 122.959 273.51 129.319 273.808 133.209 277.95 C 143.478 289.041 157.554 295.219 172.758 295.219 C 185.873 295.219 198.058 290.629 207.797 281.96 L 214.551 275.958 L 221.304 281.96 C 231.087 290.629 243.311 295.264 256.831 295.296 C 270.838 295.296 283.713 290.344 293.066 281.34 L 299.984 274.622 L 307.023 281.257 C 316.881 290.465 329.509 295.353 343.516 295.353 C 357.675 295.353 371.29 290.104 380.617 280.681 C 384.665 276.704 391.057 276.774 395.022 280.681 C 398.975 284.678 398.912 291.109 394.928 295.062 Z"/></svg>
